X: 42061
T: Waltz Of Happiness, The
R: waltz
M: 3/4
K: Amajor
EFG|A2Ac ea|g3c eg|f3Acf|e4(3cBA|
E3F AB|c3B BA|G3G GA|G4Bc|
d3e fa|g4f2|d3c df|e3B Bc|
d3e fa|g2f2a2|c4cd|c4(3AFG|
A2Ac ea|g3c eg|f3A cf|e4(3cBA|
E3F AB|c3B BA|B4Bc|B3 cdf|
b3^a bc'|b2a3f|g3f ga|gf3g2|
a3f de|c4B2|A6|A2z2E2||
F4E2|c4G2|F4C2|E4^E2|
F4G2|A4B2|G4GA|G4Bc|
d4A2|G4E2|F4G2|F4Bc|
d4e2|fg3B2|c4cB|c4E2|
F4E2|c4G2|F4C2|E4^E2|
F4G2|A4B2|G4GA|G4Bc|
d4e2|f2b2a2|g3f ga|gf3g2|
a3f de|c4B2|A6|A2z||

